X: 11313
T: Eagle's Whistle, The
R: waltz
M: 3/4
K: Gmajor
|:D|B2 dBAG|B2 dBAG|A2 ABAG|A2 ABAG|
B2 dBAG|B2 dBAB|G2 GBAB|1 G2 D2 D2:|2 G2 GABd||
|:e2 degd|e2 dBAG|A2 ABAG|A2 AGBd|
e2 degd|e2 dBAB|G2 GBAB|1 G2 GABd:|2 G2 D2 D2||

